public/images/icons/attachment.svg

<svg width="20" height="21" viewBox="0 0 20 21" fill="none" xmlns="http://www.w3.org/2000/svg">
<g id="attachment">
<mask id="mask0_625_6877" style="mask-type:alpha" maskUnits="userSpaceOnUse" x="0" y="0" width="20" height="21">
<rect id="Bounding box" y="0.5" width="20" height="20" fill="#D9D9D9"/>
</mask>
<g mask="url(#mask0_625_6877)">
<path id="attachment_2" d="M6.5 15C5.24546 15 4.18182 14.566 3.30908 13.6979C2.43636 12.8299 2 11.7604 2 10.4896C2 9.21875 2.45833 8.15278 3.375 7.29167C4.29167 6.43056 5.38194 6 6.64583 6H14.75C15.6528 6 16.4201 6.31597 17.0521 6.94792C17.684 7.57986 18 8.34722 18 9.25C18 10.1806 17.6632 10.9549 16.9896 11.5729C16.316 12.191 15.5208 12.5 14.6042 12.5H7.00087C6.44062 12.5 5.96708 12.3067 5.58025 11.92C5.19342 11.5333 5 11.06 5 10.5C5 9.91667 5.20833 9.4375 5.625 9.0625C6.04167 8.6875 6.52778 8.5 7.08333 8.5H15V10H7C6.85833 10 6.73958 10.0476 6.64375 10.1429C6.54792 10.2382 6.5 10.3562 6.5 10.4971C6.5 10.6379 6.54792 10.7569 6.64375 10.8542C6.73958 10.9514 6.85833 11 7 11H14.75C15.24 11 15.6542 10.8312 15.9925 10.4937C16.3308 10.1561 16.5 9.74295 16.5 9.2541C16.5 8.76526 16.3268 8.35069 15.9804 8.01042C15.634 7.67014 15.21 7.5 14.7083 7.5H6.5C5.66667 7.5 4.96181 7.79167 4.38542 8.375C3.80903 8.95833 3.51389 9.66667 3.5 10.5C3.48611 11.3472 3.79167 12.059 4.41667 12.6354C5.04167 13.2118 5.77083 13.5 6.60417 13.5H15V15H6.5Z" fill="#626474"/>
</g>
</g>
</svg>

<svg width="current" height="current" viewBox="0 0 20 21" fill="none" xmlns="http://www.w3.org/2000/svg">
  <mask id="a" style="mask-type:alpha" maskUnits="userSpaceOnUse" x="0" y="0" width="20" height="20">
    <path fill="currentColor" d="M0 .5h20v20H0z"/>
  </mask>
  <g mask="url(#a)">
    <path d="M6.5 15c-1.255 0-2.318-.434-3.19-1.302C2.435 12.83 2 11.76 2 10.49c0-1.271.458-2.337 1.375-3.198C4.292 6.43 5.382 6 6.645 6h8.105c.903 0 1.67.316 2.302.948.632.632.948 1.4.948 2.302 0 .93-.337 1.705-1.01 2.323a3.412 3.412 0 0 1-2.386.927H7.001c-.56 0-1.034-.193-1.42-.58A1.93 1.93 0 0 1 5 10.5c0-.583.208-1.063.625-1.438A2.112 2.112 0 0 1 7.083 8.5H15V10H7a.485.485 0 0 0-.356.143.48.48 0 0 0-.144.354c0 .14.048.26.144.357A.48.48 0 0 0 7 11h7.75c.49 0 .904-.169 1.242-.506.339-.338.508-.751.508-1.24s-.173-.903-.52-1.244c-.346-.34-.77-.51-1.272-.51H6.5c-.833 0-1.538.292-2.115.875A2.986 2.986 0 0 0 3.5 10.5c-.014.847.292 1.559.917 2.135.625.577 1.354.865 2.187.865H15V15H6.5Z" fill="currentColor"/>
  </g>
</svg>
